X:1
T:Lord Strangres March in 1st and 2nd. JBs.001
R:March
S:Jas.Blackshaw MS, 1837, N.Shropshire
A:North Shropshire
Z:T. Weatherall 2006
M:4/4
L:1/8
Q:1/2=80
K:C
c2 c>c c2 e>c|g2g>gg3 f|e>de>f e>gf>e|d2d>d d2z2|!
c2c>c c2ec|g2g>g g3f|e>de>f e2d2|c2 c>c c2z2:|!
|:d2d>d ddfd|c2ec d2G2|d2d>d defd|e2 dc d2z2|!
c2c>c c2e>c|g2g>gg3f|edefe2d2|c2c>cc2z2:|

